X:284
T:Gatehouse Maid, The
S:As played by Niall Kenney, flute player
Z:Nigel Gatherer <gatherer@argonet.co.uk>
M:4/4
L:1/8
K:G
G2 BG EFGE|FDFA dAFD|G2 BG EFGA|BcBA GFEF|G2 BG EFGE|FDFA dAFD|
G2 BG EFGA|BcBA G3 z||eB (3BBB efge|fede fagf|eB (3BBB efge|
fagf (3efg f2|eB (3BBB efge|fede fagf|eB (3BBB cBAG|d2 de fdAF|]
